images/newsarrow.svg

<svg width="16" height="17" viewBox="0 0 16 17" fill="none" xmlns="http://www.w3.org/2000/svg">
<g id="Chevron Down">
<path id="Vector" fill-rule="evenodd" clip-rule="evenodd" d="M10.6123 8.16955C10.7885 8.34576 10.7885 8.63141 10.6123 8.80763L6.01202 13.4079C5.83581 13.5841 5.55016 13.5841 5.37394 13.4079L5.16121 13.1952C4.985 13.019 4.985 12.7333 5.16121 12.5571L9.22971 8.48859L5.16121 4.42009C4.985 4.24388 4.985 3.95823 5.16121 3.78201L5.37394 3.56928C5.55016 3.39307 5.83581 3.39307 6.01202 3.56928L10.6123 8.16955Z" fill="black"/>
</g>
</svg>

<svg xmlns="http://www.w3.org/2000/svg" width="16" height="17" fill="none"><path fill="#000" fill-rule="evenodd" d="M10.612 8.17a.451.451 0 0 1 0 .638l-4.6 4.6a.451.451 0 0 1-.638 0l-.213-.213a.451.451 0 0 1 0-.638L9.23 8.49 5.16 4.42a.451.451 0 0 1 0-.638l.213-.213a.451.451 0 0 1 .638 0l4.6 4.6Z" clip-rule="evenodd"/></svg>
